images/orchard.svg

<?xml version="1.0" encoding="UTF-8" standalone="no"?>
<svg xmlns:dc="http://purl.org/dc/elements/1.1/" xmlns:cc="http://creativecommons.org/ns#" xmlns:rdf="http://www.w3.org/1999/02/22-rdf-syntax-ns#" xmlns:svg="http://www.w3.org/2000/svg" xmlns="http://www.w3.org/2000/svg" xmlns:sodipodi="http://sodipodi.sourceforge.net/DTD/sodipodi-0.dtd" xmlns:inkscape="http://www.inkscape.org/namespaces/inkscape" id="Svg" width="512" height="512" version="1.1" sodipodi:docname="orchard.svg" inkscape:version="0.92.4 (5da689c313, 2019-01-14)">
  <metadata id="metadata6255">
    <rdf:RDF>
      <cc:Work rdf:about="">
        <dc:format>image/svg+xml</dc:format>
        <dc:type rdf:resource="http://purl.org/dc/dcmitype/StillImage" />
      </cc:Work>
    </rdf:RDF>
  </metadata>
  <defs id="defs6253" />
  <sodipodi:namedview pagecolor="#ffffff" bordercolor="#666666" borderopacity="1" objecttolerance="10" gridtolerance="10" guidetolerance="10" inkscape:pageopacity="0" inkscape:pageshadow="2" inkscape:window-width="1881" inkscape:window-height="1056" id="namedview6251" showgrid="false" inkscape:zoom="5.2149125" inkscape:cx="33.45122" inkscape:cy="441.49355" inkscape:window-x="0" inkscape:window-y="0" inkscape:window-maximized="1" inkscape:current-layer="Svg" />
  <path style="opacity:1;fill:#000000;fill-opacity:0.13513513;fill-rule:nonzero;stroke:#000000;stroke-width:0.8;stroke-linecap:round;stroke-linejoin:round;stroke-miterlimit:4;stroke-dasharray:none;stroke-dashoffset:0;stroke-opacity:1;paint-order:normal" d="M 20.911191,20.030543 C 19.849246,20.039903 18.949967,20.368213 18.343905,20.855303 C 17.535825,21.504733 17.208175,22.595513 16.884047,24.388933 C 18.102067,23.373093 19.26012,23.407063 20.09987,23.979143 C 20.288039,23.894563 20.458854,23.793173 20.609399,23.672183 C 21.417487,23.022753 21.886966,21.481143 22.022751,20.133373 C 21.637568,20.059703 21.265172,20.027423 20.911191,20.030543 Z" id="path10626" inkscape:connector-curvature="0" />
  <path style="opacity:1;fill:#000000;fill-opacity:0.13513513;fill-rule:nonzero;stroke:#000000;stroke-width:0.8;stroke-linecap:round;stroke-linejoin:round;stroke-miterlimit:4;stroke-dasharray:none;stroke-dashoffset:0;stroke-opacity:1;paint-order:normal" d="M 12.299512,26.583243 C 12.444451,24.315803 14.733413,22.324813 16.884047,24.388933 C 19.258369,22.408733 21.407477,24.412053 21.407477,26.630493 C 21.407476,28.848923 19.34489,32.023843 16.545083,29.652923 C 13.543484,31.973643 12.156265,28.824223 12.299512,26.583243 Z" id="path10624" inkscape:connector-curvature="0" />
  <path style="opacity:1;fill:#000000;fill-opacity:0.13513513;fill-rule:nonzero;stroke:#000000;stroke-width:0.8;stroke-linecap:round;stroke-linejoin:round;stroke-miterlimit:4;stroke-dasharray:none;stroke-dashoffset:0;stroke-opacity:1;paint-order:normal" d="M 31.577791,1.7448429 C 30.515846,1.7542029 29.616567,2.0825129 29.010505,2.5696029 C 28.202425,3.2190329 27.874775,4.3098129 27.550647,6.1032329 C 28.768667,5.0873929 29.92672,5.1213629 30.76647,5.6934429 C 30.954639,5.6088629 31.125454,5.5074729 31.275999,5.3864829 C 32.084087,4.7370529 32.553566,3.1954429 32.689351,1.8476729 C 32.304168,1.7740029 31.931772,1.7417229 31.577791,1.7448429 Z" id="path10258" inkscape:connector-curvature="0" />
  <path style="opacity:1;fill:#000000;fill-opacity:0.13513513;fill-rule:nonzero;stroke:#000000;stroke-width:0.8;stroke-linecap:round;stroke-linejoin:round;stroke-miterlimit:4;stroke-dasharray:none;stroke-dashoffset:0;stroke-opacity:1;paint-order:normal" d="M 22.966112,8.2975429 C 23.111051,6.0301029 25.400013,4.0391129 27.550647,6.1032329 C 29.924969,4.1230329 32.074077,6.1263529 32.074077,8.3447929 C 32.074076,10.563223 30.01149,13.738143 27.211683,11.367223 C 24.210084,13.687943 22.822865,10.538523 22.966112,8.2975429 Z" id="path10256" inkscape:connector-curvature="0" />
  <path style="opacity:1;fill:#000000;fill-opacity:0.13513513;fill-rule:nonzero;stroke:#000000;stroke-width:0.8;stroke-linecap:round;stroke-linejoin:round;stroke-miterlimit:4;stroke-dasharray:none;stroke-dashoffset:0;stroke-opacity:1;paint-order:normal" d="M 42.244491,20.030543 C 41.182546,20.039903 40.283267,20.368213 39.677205,20.855303 C 38.869125,21.504733 38.541475,22.595513 38.217347,24.388933 C 39.435367,23.373093 40.59342,23.407063 41.43317,23.979143 C 41.621339,23.894563 41.792154,23.793173 41.942699,23.672183 C 42.750787,23.022753 43.220266,21.481143 43.356051,20.133373 C 42.970868,20.059703 42.598472,20.027423 42.244491,20.030543 Z" id="path10222" inkscape:connector-curvature="0" />
  <path style="opacity:1;fill:#000000;fill-opacity:0.13513513;fill-rule:nonzero;stroke:#000000;stroke-width:0.8;stroke-linecap:round;stroke-linejoin:round;stroke-miterlimit:4;stroke-dasharray:none;stroke-dashoffset:0;stroke-opacity:1;paint-order:normal" d="M 33.632812,26.583243 C 33.777751,24.315803 36.066713,22.324813 38.217347,24.388933 C 40.591669,22.408733 42.740777,24.412053 42.740777,26.630493 C 42.740776,28.848923 40.67819,32.023843 37.878383,29.652923 C 34.876784,31.973643 33.489565,28.824223 33.632812,26.583243 Z" id="path10220" inkscape:connector-curvature="0" />
  <path style="opacity:1;fill:#000000;fill-opacity:0.13513513;fill-rule:nonzero;stroke:#000000;stroke-width:0.8;stroke-linecap:round;stroke-linejoin:round;stroke-miterlimit:4;stroke-dasharray:none;stroke-dashoffset:0;stroke-opacity:1;paint-order:normal" d="M 10.244491,1.7448429 C 9.1825464,1.7542029 8.2832674,2.0825129 7.6772054,2.5696029 C 6.8691254,3.2190329 6.5414754,4.3098129 6.2173474,6.1032329 C 7.4353674,5.0873929 8.5934204,5.1213629 9.4331704,5.6934429 C 9.6213394,5.6088629 9.7921544,5.5074729 9.9426994,5.3864829 C 10.750787,4.7370529 11.220266,3.1954429 11.356051,1.8476729 C 10.970868,1.7740029 10.598472,1.7417229 10.244491,1.7448429 Z" id="path10086" inkscape:connector-curvature="0" />
  <path style="opacity:1;fill:#000000;fill-opacity:0.13513513;fill-rule:nonzero;stroke:#000000;stroke-width:0.8;stroke-linecap:round;stroke-linejoin:round;stroke-miterlimit:4;stroke-dasharray:none;stroke-dashoffset:0;stroke-opacity:1;paint-order:normal" d="M 1.6328124,8.2975429 C 1.7777514,6.0301029 4.0667134,4.0391129 6.2173474,6.1032329 C 8.5916694,4.1230329 10.740777,6.1263529 10.740777,8.3447929 C 10.740776,10.563223 8.6781904,13.738143 5.8783834,11.367223 C 2.8767844,13.687943 1.4895654,10.538523 1.6328124,8.2975429 Z" id="path10084" inkscape:connector-curvature="0" />
  <rect style="opacity:1;fill:none;fill-opacity:0.13513513;fill-rule:nonzero;stroke:none;stroke-width:0.8;stroke-linecap:round;stroke-linejoin:round;stroke-miterlimit:4;stroke-dasharray:none;stroke-dashoffset:0;stroke-opacity:1;paint-order:normal" id="rect10896" width="44" height="36" x="0" y="0" />
</svg>

<svg xmlns="http://www.w3.org/2000/svg" width="512" height="512">
    <path d="M20.911 20.03c-1.062.01-1.961.338-2.567.825-.808.65-1.136 1.74-1.46 3.534 1.218-1.016 2.376-.982 3.216-.41a2.34 2.34 0 00.51-.307c.807-.65 1.277-2.19 1.413-3.539a5.655 5.655 0 00-1.112-.102z" fill-opacity=".135" stroke="#000" stroke-width=".8" stroke-linecap="round" stroke-linejoin="round"/>
    <path d="M12.3 26.583c.144-2.267 2.433-4.258 4.584-2.194 2.374-1.98 4.523.023 4.523 2.241 0 2.219-2.062 5.394-4.862 3.023-3.002 2.32-4.389-.829-4.245-3.07zM31.578 1.745c-1.062.01-1.961.338-2.567.825-.809.649-1.136 1.74-1.46 3.533 1.218-1.016 2.376-.982 3.215-.41a2.34 2.34 0 00.51-.307c.808-.649 1.278-2.19 1.413-3.538a5.655 5.655 0 00-1.111-.103z" fill-opacity=".135" stroke="#000" stroke-width=".8" stroke-linecap="round" stroke-linejoin="round"/>
    <path d="M22.966 8.298c.145-2.268 2.434-4.259 4.585-2.195 2.374-1.98 4.523.023 4.523 2.242 0 2.218-2.063 5.393-4.862 3.022-3.002 2.32-4.39-.828-4.246-3.07zM42.244 20.03c-1.061.01-1.96.338-2.567.825-.808.65-1.136 1.74-1.46 3.534 1.218-1.016 2.376-.982 3.216-.41a2.34 2.34 0 00.51-.307c.808-.65 1.277-2.19 1.413-3.539a5.655 5.655 0 00-1.112-.102z" fill-opacity=".135" stroke="#000" stroke-width=".8" stroke-linecap="round" stroke-linejoin="round"/>
    <path d="M33.633 26.583c.145-2.267 2.434-4.258 4.584-2.194 2.375-1.98 4.524.023 4.524 2.241 0 2.219-2.063 5.394-4.863 3.023-3.001 2.32-4.388-.829-4.245-3.07zM10.244 1.745c-1.061.01-1.96.338-2.567.825-.808.649-1.136 1.74-1.46 3.533 1.218-1.016 2.376-.982 3.216-.41a2.34 2.34 0 00.51-.307c.808-.649 1.277-2.19 1.413-3.538a5.655 5.655 0 00-1.112-.103z" fill-opacity=".135" stroke="#000" stroke-width=".8" stroke-linecap="round" stroke-linejoin="round"/>
    <path d="M1.633 8.298c.145-2.268 2.434-4.259 4.584-2.195 2.375-1.98 4.524.023 4.524 2.242 0 2.218-2.063 5.393-4.863 3.022-3.001 2.32-4.388-.828-4.245-3.07z" fill-opacity=".135" stroke="#000" stroke-width=".8" stroke-linecap="round" stroke-linejoin="round"/>
    <path fill="none" d="M0 0h44v36H0z"/>
</svg>
